!!!OTL: Shangchashan
!!!ARE: Asia, China,ÿGuizhou Yinjiang
!! II, 134
!!!SCT: C1870
!!!YEM: Copyright 1995, estate of Helmut Schaffrath.
**kern
*ICvox
*Ivox
*M2/4
*k[f#]
*G:
{8a
16a
16g
4e
=1
8a
16a
16g
4e
=2
8a
4b
8a
=3
16dd
16b
16b
16a
8a
8g}
=4
{8a
4b
8a
=5
16dd
16b
16b
16a
8a
8g}
=6
{16b
16b
16b
16dd
8e
16e
16g
=7
4.a
8b
=8
8g
4e
8b
=9
8.a
16g
16e
16g
8d
=10
2e}
=11
{8.ee
16dd
8dd
8a
=12
16dd
16b
16b
16a
8a
8g
=13
8a
16b
16a
16g
16b
16a
16g
=14
2e}
=15
{16b
16b
16b
16dd
8e
16e
16g
=16
4.a
8b
=17
8g
4e
8b
=18
8.a
16g
16e
16g
8d
=19
2e}
==
!!!AGN: Xiaodiao
!!!AMT: simple duple
!!!AIN: vox
!!!EED: Helmut Schaffrath
!!!EEV: 1.0
*-
